X:69
T:Coryphee,La. CJF.069
T:La Coryphee. CJF.069
R:Quadrille
S:C.J.Fox MS, 1829/33, Beverley,E.Yorks.
B:Kidson Coll.Mitchell Lib.M1805
O:England
A:East Yorkshire
Z:vmp.P J Headford 2000 & 2008
M:6/8
L:1/8
Q:3/8=100
K:D
A|(f2e) gBc|d3{e/}dcd|(Bef) (gfe)|(d3c2)A|\
f2e gBc|d3dcd|B2g (bac)|d2fd2:|!
|:A|(ece)a2g/e/|(fdf)a2f/a/|(g2e)(f2d)|(cd^d)e2A|\
(ece)a2g/e/|(fdf)a2d’|(c’ba) (^ga” D Capo”b)|a2c’a2:|

